_inc/images/systems/logos/auto-playingcards.svg

<svg viewBox="0 0 200 40" xmlns="http://www.w3.org/2000/svg">
    <path d="M15.924 32c-.298-.109-.621-.183-.898-.343-3.285-1.883-6.566-3.77-9.842-5.67-.997-.576-1.23-1.45-.654-2.447 2.811-4.873 5.63-9.748 8.448-14.617.544-.936 1.439-1.181 2.382-.637 3.297 1.896 6.59 3.79 9.883 5.698.952.552 1.185 1.422.637 2.374-2.819 4.89-5.645 9.777-8.469 14.662-.331.569-.788.912-1.487.98ZM5.665 24.537c.192.123.328.213.471.29 3.113 1.794 6.226 3.583 9.331 5.392.408.238.592.192.829-.216 2.709-4.714 5.426-9.416 8.163-14.114.236-.406.158-.561-.221-.781-3.133-1.79-6.259-3.591-9.376-5.409-.384-.224-.531-.159-.744.208-1.842 3.216-3.7 6.419-5.556 9.625-.96 1.651-1.911 3.301-2.897 5.005Z" style="fill:#ccc"/>
    <path d="M9.184 29.615c-.212.016-.34.033-.462.033-1.716 0-3.432.004-5.143 0-1.268-.005-1.888-.63-1.888-1.901V11.088c0-1.263.596-1.863 1.855-1.863 2.483-.003 4.964 0 7.448 0h.567c-.302.519-.535.972-.833 1.381-.082.111-.36.106-.548.106-2.141.008-4.277.017-6.418-.004-.449-.004-.584.131-.584.585.017 4.064.008 8.134.008 12.198 0 1.385.009 2.774-.003 4.159-.005.372.093.551.498.507.273-.029.555-.004.832-.004 2.452 0 2.452 0 4.515 1.286.034.021.058.065.156.176Zm9.224-10.368c1.332 1.286.989 2.786.323 3.554-.899 1.037-2.166 1.12-3.685.163.082.539.163 1.013.212 1.487.021.192-.037.396-.061.593-.192-.033-.413-.017-.576-.107a159.42 159.42 0 0 1-3.517-2.03c-.16-.094-.258-.294-.384-.446.146-.11.282-.248.445-.318.429-.188.87-.351 1.38-.552-.216-.114-.355-.183-.489-.261-1.013-.576-1.499-1.834-1.128-2.909.404-1.164 1.52-1.842 2.725-1.655.241.037.425.086.608-.208.732-1.168 2.129-1.527 3.285-.886 1.177.654 1.598 2.042.997 3.296-.041.087-.082.177-.135.279Z" style="fill:#ccc"/>
    <path d="m41.832 23.83-.48 5.04c-1.28.52-2.9.78-4.86.78-2.52 0-4.325-.49-5.415-1.47-1.09-.98-1.635-2.49-1.635-4.53 0-.86.14-2.13.42-3.81.6-3.44 1.635-5.94 3.105-7.5 1.47-1.56 3.795-2.34 6.975-2.34.74 0 1.585.075 2.535.225.95.15 1.645.335 2.085.555l-1.68 4.59c-1.18-.28-2.285-.42-3.315-.42-1.03 0-1.765.1-2.205.3-.44.2-.71.6-.81 1.2l-1.38 7.86c.72.16 1.46.24 2.22.24 1.62 0 3.1-.24 4.44-.72Zm6.359 5.37h-6l7.89-18.75h8.82l1.32 18.75h-6.03l-.12-2.97h-4.71Zm5.13-12.99-2.1 5.25h2.4v-5.25Zm24.42 12.99h-6.27l-1.38-5.58h-1.23l-.96 5.58h-5.7l3.3-18.75h9c3.42 0 5.13 1.53 5.13 4.59 0 1.26-.19 2.46-.57 3.6-.7 2.16-1.8 3.6-3.3 4.32Zm-7.41-13.95-.66 3.75h1.32c.68 0 1.195-.075 1.545-.225.35-.15.59-.58.72-1.29.13-.71.195-1.145.195-1.305 0-.4-.155-.655-.465-.765-.31-.11-.815-.165-1.515-.165ZM80.17 29.2l3.3-18.75h7.98c2.58 0 4.415.455 5.505 1.365 1.09.91 1.635 2.385 1.635 4.425 0 1.04-.12 2.24-.36 3.6-.6 3.36-1.625 5.76-3.075 7.2-1.45 1.44-3.785 2.16-7.005 2.16Zm10.5-13.95H88.3l-1.59 9.15h2.37c.78 0 1.36-.095 1.74-.285.38-.19.63-.625.75-1.305l1.05-5.97c.02-.12.03-.28.03-.48 0-.46-.16-.76-.48-.9-.32-.14-.82-.21-1.5-.21Zm25.05 8.43.15-.81h-1.44l.81-4.59h6.87l-1.77 10.02c-2.44.9-4.89 1.35-7.35 1.35s-4.235-.49-5.325-1.47c-1.09-.98-1.635-2.49-1.635-4.53 0-.86.14-2.13.42-3.81.6-3.48 1.66-5.99 3.18-7.53 1.52-1.54 4.04-2.31 7.56-2.31.74 0 1.685.08 2.835.24 1.15.16 1.995.34 2.535.54l-1.65 4.59c-1.5-.28-2.875-.42-4.125-.42s-2.145.1-2.685.3c-.54.2-.86.6-.96 1.2l-1.47 8.49h1.89c.68 0 1.185-.075 1.515-.225.33-.15.545-.495.645-1.035Zm11.639 5.52h-6l7.89-18.75h8.82l1.32 18.75h-6.03l-.12-2.97h-4.71Zm5.13-12.99-2.1 5.25h2.4v-5.25Zm14.28 12.99h-5.94l4.38-18.75h7.44l.54 9.54h.21l3.9-9.54h7.44l-2.22 18.75h-5.97l1.26-9.09h-.21l-3.75 9.09h-4.35l-.63-9.09h-.15Zm31.559-7.08h-5.7l-.39 2.28h6.99l-.84 4.8h-12.69l3.3-18.75h12.54l-1.56 4.8h-6.15l-.42 2.52h5.7Zm2.73 6.75 1.68-4.95c1.68.46 3.22.69 4.62.69s2.53-.06 3.39-.18l.24-1.5-2.49-.24c-1.9-.18-3.245-.61-4.035-1.29s-1.185-1.64-1.185-2.88c0-.54.06-1.14.18-1.8.46-2.56 1.295-4.32 2.505-5.28s3.085-1.44 5.625-1.44 4.78.25 6.72.75l-1.56 4.8c-1.74-.3-3.14-.45-4.2-.45s-1.96.05-2.7.15l-.24 1.47 2.01.21c2.04.22 3.49.705 4.35 1.455.86.75 1.29 1.755 1.29 3.015 0 1.28-.28 2.6-.84 3.96-.28.7-.585 1.285-.915 1.755-.33.47-.75.87-1.26 1.2-.51.33-.975.58-1.395.75-.42.17-.95.295-1.59.375-.94.14-2.09.21-3.45.21-2.48 0-4.73-.26-6.75-.78Z" style="fill:#fff;white-space:pre"/>
</svg>

<?xml version="1.0" encoding="utf-8"?>
<svg version="1.1" id="cards" x="0px" y="0px" viewBox="0 0 200 40" xmlns="http://www.w3.org/2000/svg">
  <path d="M 15.924 32 C 15.626 31.891 15.303 31.817 15.026 31.657 C 11.741 29.774 8.46 27.887 5.184 25.987 C 4.187 25.411 3.954 24.537 4.53 23.54 C 7.341 18.667 10.16 13.792 12.978 8.923 C 13.522 7.987 14.417 7.742 15.36 8.286 C 18.657 10.182 21.95 12.076 25.243 13.984 C 26.195 14.536 26.428 15.406 25.88 16.358 C 23.061 21.248 20.235 26.135 17.411 31.02 C 17.08 31.589 16.623 31.932 15.924 32 Z M 5.665 24.537 C 5.857 24.66 5.993 24.75 6.136 24.827 C 9.249 26.621 12.362 28.41 15.467 30.219 C 15.875 30.457 16.059 30.411 16.296 30.003 C 19.005 25.289 21.722 20.587 24.459 15.889 C 24.695 15.483 24.617 15.328 24.238 15.108 C 21.105 13.318 17.979 11.517 14.862 9.699 C 14.478 9.475 14.331 9.54 14.118 9.907 C 12.276 13.123 10.418 16.326 8.562 19.532 C 7.602 21.183 6.651 22.833 5.665 24.537 Z" style="fill: rgb(204, 204, 204);"/>
  <path d="M 9.184 29.615 C 8.972 29.631 8.844 29.648 8.722 29.648 C 7.006 29.648 5.29 29.652 3.579 29.648 C 2.311 29.643 1.691 29.018 1.691 27.747 C 1.691 22.196 1.691 16.64 1.691 11.088 C 1.691 9.825 2.287 9.225 3.546 9.225 C 6.029 9.222 8.51 9.225 10.994 9.225 C 11.136 9.225 11.284 9.225 11.561 9.225 C 11.259 9.744 11.026 10.197 10.728 10.606 C 10.646 10.717 10.368 10.712 10.18 10.712 C 8.039 10.72 5.903 10.729 3.762 10.708 C 3.313 10.704 3.178 10.839 3.178 11.293 C 3.195 15.357 3.186 19.427 3.186 23.491 C 3.186 24.876 3.195 26.265 3.183 27.65 C 3.178 28.022 3.276 28.201 3.681 28.157 C 3.954 28.128 4.236 28.153 4.513 28.153 C 6.965 28.153 6.965 28.153 9.028 29.439 C 9.062 29.46 9.086 29.504 9.184 29.615 Z" style="fill: rgb(204, 204, 204);"/>
  <path d="M 18.408 19.247 C 19.74 20.533 19.397 22.033 18.731 22.801 C 17.832 23.838 16.565 23.921 15.046 22.964 C 15.128 23.503 15.209 23.977 15.258 24.451 C 15.279 24.643 15.221 24.847 15.197 25.044 C 15.005 25.011 14.784 25.027 14.621 24.937 C 13.44 24.276 12.268 23.598 11.104 22.907 C 10.944 22.813 10.846 22.613 10.72 22.461 C 10.866 22.351 11.002 22.213 11.165 22.143 C 11.594 21.955 12.035 21.792 12.545 21.591 C 12.329 21.477 12.19 21.408 12.056 21.33 C 11.043 20.754 10.557 19.496 10.928 18.421 C 11.332 17.257 12.448 16.579 13.653 16.766 C 13.894 16.803 14.078 16.852 14.261 16.558 C 14.993 15.39 16.39 15.031 17.546 15.672 C 18.723 16.326 19.144 17.714 18.543 18.968 C 18.502 19.055 18.461 19.145 18.408 19.247 Z" style="fill: rgb(204, 204, 204);"/>
  <path d="M 41.832 23.83 L 41.352 28.87 C 40.072 29.39 38.452 29.65 36.492 29.65 C 33.972 29.65 32.167 29.16 31.077 28.18 C 29.987 27.2 29.442 25.69 29.442 23.65 C 29.442 22.79 29.582 21.52 29.862 19.84 C 30.462 16.4 31.497 13.9 32.967 12.34 C 34.437 10.78 36.762 10 39.942 10 C 40.682 10 41.527 10.075 42.477 10.225 C 43.427 10.375 44.122 10.56 44.562 10.78 L 42.882 15.37 C 41.702 15.09 40.597 14.95 39.567 14.95 C 38.537 14.95 37.802 15.05 37.362 15.25 C 36.922 15.45 36.652 15.85 36.552 16.45 L 35.172 24.31 C 35.892 24.47 36.632 24.55 37.392 24.55 C 39.012 24.55 40.492 24.31 41.832 23.83 Z M 48.191 29.2 L 42.191 29.2 L 50.081 10.45 L 58.901 10.45 L 60.221 29.2 L 54.191 29.2 L 54.071 26.23 L 49.361 26.23 Z M 53.321 16.21 L 51.221 21.46 L 53.621 21.46 L 53.621 16.21 Z M 77.741 29.2 L 71.471 29.2 L 70.091 23.62 L 68.861 23.62 L 67.901 29.2 L 62.201 29.2 L 65.501 10.45 L 74.501 10.45 C 77.921 10.45 79.631 11.98 79.631 15.04 C 79.631 16.3 79.441 17.5 79.061 18.64 C 78.361 20.8 77.261 22.24 75.761 22.96 Z M 70.331 15.25 L 69.671 19 L 70.991 19 C 71.671 19 72.186 18.925 72.536 18.775 C 72.886 18.625 73.126 18.195 73.256 17.485 C 73.386 16.775 73.451 16.34 73.451 16.18 C 73.451 15.78 73.296 15.525 72.986 15.415 C 72.676 15.305 72.171 15.25 71.471 15.25 Z M 80.17 29.2 L 83.47 10.45 L 91.45 10.45 C 94.03 10.45 95.865 10.905 96.955 11.815 C 98.045 12.725 98.59 14.2 98.59 16.24 C 98.59 17.28 98.47 18.48 98.23 19.84 C 97.63 23.2 96.605 25.6 95.155 27.04 C 93.705 28.48 91.37 29.2 88.15 29.2 Z M 90.67 15.25 L 88.3 15.25 L 86.71 24.4 L 89.08 24.4 C 89.86 24.4 90.44 24.305 90.82 24.115 C 91.2 23.925 91.45 23.49 91.57 22.81 L 92.62 16.84 C 92.64 16.72 92.65 16.56 92.65 16.36 C 92.65 15.9 92.49 15.6 92.17 15.46 C 91.85 15.32 91.35 15.25 90.67 15.25 Z M 115.72 23.68 L 115.87 22.87 L 114.43 22.87 L 115.24 18.28 L 122.11 18.28 L 120.34 28.3 C 117.9 29.2 115.45 29.65 112.99 29.65 C 110.53 29.65 108.755 29.16 107.665 28.18 C 106.575 27.2 106.03 25.69 106.03 23.65 C 106.03 22.79 106.17 21.52 106.45 19.84 C 107.05 16.36 108.11 13.85 109.63 12.31 C 111.15 10.77 113.67 10 117.19 10 C 117.93 10 118.875 10.08 120.025 10.24 C 121.175 10.4 122.02 10.58 122.56 10.78 L 120.91 15.37 C 119.41 15.09 118.035 14.95 116.785 14.95 C 115.535 14.95 114.64 15.05 114.1 15.25 C 113.56 15.45 113.24 15.85 113.14 16.45 L 111.67 24.94 L 113.56 24.94 C 114.24 24.94 114.745 24.865 115.075 24.715 C 115.405 24.565 115.62 24.22 115.72 23.68 Z M 127.359 29.2 L 121.359 29.2 L 129.249 10.45 L 138.069 10.45 L 139.389 29.2 L 133.359 29.2 L 133.239 26.23 L 128.529 26.23 Z M 132.489 16.21 L 130.389 21.46 L 132.789 21.46 L 132.789 16.21 Z M 146.769 29.2 L 140.829 29.2 L 145.209 10.45 L 152.649 10.45 L 153.189 19.99 L 153.399 19.99 L 157.299 10.45 L 164.739 10.45 L 162.519 29.2 L 156.549 29.2 L 157.809 20.11 L 157.599 20.11 L 153.849 29.2 L 149.499 29.2 L 148.869 20.11 L 148.719 20.11 Z M 178.328 22.12 L 172.628 22.12 L 172.238 24.4 L 179.228 24.4 L 178.388 29.2 L 165.698 29.2 L 168.998 10.45 L 181.538 10.45 L 179.978 15.25 L 173.828 15.25 L 173.408 17.77 L 179.108 17.77 Z M 181.058 28.87 L 182.738 23.92 C 184.418 24.38 185.958 24.61 187.358 24.61 C 188.758 24.61 189.888 24.55 190.748 24.43 L 190.988 22.93 L 188.498 22.69 C 186.598 22.51 185.253 22.08 184.463 21.4 C 183.673 20.72 183.278 19.76 183.278 18.52 C 183.278 17.98 183.338 17.38 183.458 16.72 C 183.918 14.16 184.753 12.4 185.963 11.44 C 187.173 10.48 189.048 10 191.588 10 C 194.128 10 196.368 10.25 198.308 10.75 L 196.748 15.55 C 195.008 15.25 193.608 15.1 192.548 15.1 C 191.488 15.1 190.588 15.15 189.848 15.25 L 189.608 16.72 L 191.618 16.93 C 193.658 17.15 195.108 17.635 195.968 18.385 C 196.828 19.135 197.258 20.14 197.258 21.4 C 197.258 22.68 196.978 24 196.418 25.36 C 196.138 26.06 195.833 26.645 195.503 27.115 C 195.173 27.585 194.753 27.985 194.243 28.315 C 193.733 28.645 193.268 28.895 192.848 29.065 C 192.428 29.235 191.898 29.36 191.258 29.44 C 190.318 29.58 189.168 29.65 187.808 29.65 C 185.328 29.65 183.078 29.39 181.058 28.87 Z" style="fill: rgb(255, 255, 255); white-space: pre;"/>
</svg>
